X:1
T: Lamb Skinnet
C:
R:Jig
Q:180
K:A
M:6/8
L:1/16
e2|A2c2e2 e2c2A2|d4f2 f4a2|A2c2e2 e2c2A2|G4B2 B4c2|A2c2e2 e2c2A2|d4f2 f4a2|g2f2e2 f2e2^d2|e6E4e2|
A2c2e2 e2c2A2|d4f2 f4a2|A2c2e2 e2c2A2|G4B2 B4c2|A2c2e2 e2c2A2|d4f2 f4a2|g2f2e2 f2e2^d2|e6E4fg|
a2e2c2 a2e2c2|d4f2f4a2|e2c2A2 e2c2A2|G4B2 B2c2d2|e2c2A2 e2c2A2|d4f2 f2g2a2|e2c2A2 d2B2G2|A6A4fg|
a2e2c2 a2e2c2|d4f2f4a2|e2c2A2 e2c2A2|G4B2 B2c2d2|e2c2A2 e2c2A2|d4f2 f2g2a2|e2c2A2 d2B2G2|A6A4||
